svg/Octicons/alignment-unalign.svg

<svg xmlns="http://www.w3.org/2000/svg" viewBox="0 0 896 1024"><path d="m512 192l-128 128-256-256-128 128 256 256-128 128 64 64 384-384-64-64m128 384l128-128-64-64-384 384 64 64 128-128 256 256 128-128-256-256"/></svg>

<svg height="1024" width="896" xmlns="http://www.w3.org/2000/svg">
  <path d="M512 192L384 320 128 64 0 192l256 256L128 576l64 64 384-384L512 192zM640 576l128-128-64-64L320 768l64 64 128-128 256 256 128-128L640 576z" />
</svg>
